fill/svg/save.svg

<svg xmlns="http://www.w3.org/2000/svg" viewBox="0 0 24 24"><g data-name="Layer 2"><g data-name="save"><rect x="10" y="17" width="4" height="4"/><path d="M20.12 8.71l-4.83-4.83A3 3 0 0 0 13.17 3H10v6h5a1 1 0 0 1 0 2H9a1 1 0 0 1-1-1V3H6a3 3 0 0 0-3 3v12a3 3 0 0 0 3 3h2v-4a2 2 0 0 1 2-2h4a2 2 0 0 1 2 2v4h2a3 3 0 0 0 3-3v-7.17a3 3 0 0 0-.88-2.12z"/></g></g></svg>

<svg xmlns="http://www.w3.org/2000/svg" viewBox="0 0 24 24"><defs><style>.cls-1{fill:#fff;opacity:0;}.cls-2{fill:#231f20;}</style></defs><title>save</title><g id="Layer_2" data-name="Layer 2"><g id="save"><g id="save-2" data-name="save"><rect class="cls-1" width="24" height="24"/><rect class="cls-2" x="10" y="17" width="4" height="4"/><path class="cls-2" d="M20.12,8.71,15.29,3.88A3,3,0,0,0,13.17,3H10V9h5a1,1,0,0,1,0,2H9a1,1,0,0,1-1-1V3H6A3,3,0,0,0,3,6V18a3,3,0,0,0,3,3H8V17a2,2,0,0,1,2-2h4a2,2,0,0,1,2,2v4h2a3,3,0,0,0,3-3V10.83A3,3,0,0,0,20.12,8.71Z"/></g></g></g></svg>
